docs/img/game/alpha-1-9-3/gear/equipment/orb/orb_1.svg

<svg version="1.1" id="Layer_3" xmlns="http://www.w3.org/2000/svg" x="0" y="0" width="150" height="250" viewBox="0 0 150 250" xml:space="preserve"><g><g><path fill-rule="evenodd" clip-rule="evenodd" fill="#7EAAF1" d="M36.6 39.4c-2.7 0-4.9-2.2-4.9-4.9s2.2-4.9 4.9-4.9 4.9 2.2 4.9 4.9c-.1 2.7-2.3 4.9-4.9 4.9z"/><path fill="#397DEA" d="M36.6 30.6c2.1 0 3.9 1.7 3.9 3.9s-1.7 3.9-3.9 3.9c-2.1 0-3.9-1.7-3.9-3.9s1.7-3.9 3.9-3.9m0-2c-3.2 0-5.9 2.6-5.9 5.9 0 3.2 2.6 5.9 5.9 5.9 3.2 0 5.9-2.6 5.9-5.9-.1-3.2-2.7-5.9-5.9-5.9z"/></g><path fill-rule="evenodd" clip-rule="evenodd" fill="#95B9F4" d="M36.6 30.6c2.1 0 3.9 1.7 3.9 3.9 0 2.1-1.6 3.8-3.7 3.9 4.4-2.1 1.8-7.8-2.1-7.2.5-.4 1.1-.6 1.9-.6z"/><path fill-rule="evenodd" clip-rule="evenodd" fill="#679BEF" d="M39.9 36.4c-1.1 1.8-3.4 2.5-5.3 1.4-1.8-1-2.4-3.3-1.5-5.1-.4 4.9 5.9 5.5 7.3 1.7 0 .7-.1 1.4-.5 2z"/><ellipse fill-rule="evenodd" clip-rule="evenodd" fill="#B7E8F3" cx="36.6" cy="32.1" rx="1.6" ry=".8"/><ellipse fill-rule="evenodd" clip-rule="evenodd" fill="#B7E8F3" cx="38.7" cy="33.2" rx=".6" ry=".3"/></g><g><g><path fill-rule="evenodd" clip-rule="evenodd" fill="#7EAAF1" d="M36.6 242.4c-2.7 0-4.9-2.2-4.9-4.9s2.2-4.9 4.9-4.9 4.9 2.2 4.9 4.9-2.3 4.9-4.9 4.9z"/><path fill="#397DEA" d="M36.6 233.6c2.1 0 3.9 1.7 3.9 3.9s-1.7 3.9-3.9 3.9c-2.1 0-3.9-1.7-3.9-3.9s1.7-3.9 3.9-3.9m0-2c-3.2 0-5.9 2.6-5.9 5.9s2.6 5.9 5.9 5.9c3.2 0 5.9-2.6 5.9-5.9s-2.7-5.9-5.9-5.9z"/></g><path fill-rule="evenodd" clip-rule="evenodd" fill="#95B9F4" d="M36.6 233.6c2.1 0 3.9 1.7 3.9 3.9 0 2.1-1.6 3.8-3.7 3.9 4.4-2.1 1.8-7.8-2.1-7.2.5-.4 1.1-.6 1.9-.6z"/><path fill-rule="evenodd" clip-rule="evenodd" fill="#679BEF" d="M39.9 239.4c-1.1 1.8-3.4 2.5-5.3 1.4-1.8-1-2.4-3.3-1.5-5.1-.4 4.9 5.9 5.5 7.3 1.7 0 .7-.1 1.4-.5 2z"/><path fill-rule="evenodd" clip-rule="evenodd" fill="#B7E8F3" d="M36.6 234.4c.9 0 1.6.3 1.6.8 0 .4-.7.8-1.6.8-.9 0-1.6-.3-1.6-.8-.1-.5.7-.8 1.6-.8z"/><path fill-rule="evenodd" clip-rule="evenodd" fill="#B7E8F3" d="M38.7 235.9c.3 0 .6.1.6.3 0 .2-.3.3-.6.3s-.6-.1-.6-.3c0-.2.3-.3.6-.3z"/></g><g><g><path fill-rule="evenodd" clip-rule="evenodd" fill="#7EAAF1" d="M86.6 41.4c-2.7 0-4.9-2.2-4.9-4.9s2.2-4.9 4.9-4.9 4.9 2.2 4.9 4.9c-.1 2.7-2.3 4.9-4.9 4.9z"/><path fill="#397DEA" d="M86.6 32.6c2.1 0 3.9 1.7 3.9 3.9s-1.7 3.9-3.9 3.9-3.9-1.7-3.9-3.9 1.7-3.9 3.9-3.9m0-2c-3.2 0-5.9 2.6-5.9 5.9 0 3.2 2.6 5.9 5.9 5.9s5.9-2.6 5.9-5.9c-.1-3.2-2.7-5.9-5.9-5.9z"/></g><path fill-rule="evenodd" clip-rule="evenodd" fill="#95B9F4" d="M86.6 32.6c2.1 0 3.9 1.7 3.9 3.9 0 2.1-1.6 3.8-3.7 3.9 4.4-2.1 1.8-7.8-2.1-7.2.5-.4 1.1-.6 1.9-.6z"/><path fill-rule="evenodd" clip-rule="evenodd" fill="#679BEF" d="M89.9 38.4c-1.1 1.8-3.4 2.5-5.3 1.4-1.8-1-2.4-3.3-1.5-5.1-.3 4.9 5.9 5.5 7.3 1.7 0 .7-.1 1.4-.5 2z"/><ellipse fill-rule="evenodd" clip-rule="evenodd" fill="#B7E8F3" cx="86.6" cy="34.1" rx="1.6" ry=".8"/><ellipse fill-rule="evenodd" clip-rule="evenodd" fill="#B7E8F3" cx="88.7" cy="35.2" rx=".6" ry=".3"/></g><g><g><path fill-rule="evenodd" clip-rule="evenodd" fill="#7EAAF1" d="M86.6 242.4c-2.7 0-4.9-2.2-4.9-4.9s2.2-4.9 4.9-4.9 4.9 2.2 4.9 4.9-2.3 4.9-4.9 4.9z"/><path fill="#397DEA" d="M86.6 233.6c2.1 0 3.9 1.7 3.9 3.9s-1.7 3.9-3.9 3.9-3.9-1.7-3.9-3.9 1.7-3.9 3.9-3.9m0-2c-3.2 0-5.9 2.6-5.9 5.9s2.6 5.9 5.9 5.9c3.2 0 5.9-2.6 5.9-5.9s-2.7-5.9-5.9-5.9z"/></g><path fill-rule="evenodd" clip-rule="evenodd" fill="#95B9F4" d="M86.6 233.6c2.1 0 3.9 1.7 3.9 3.9 0 2.1-1.6 3.8-3.7 3.9 4.4-2.1 1.8-7.8-2.1-7.2.5-.4 1.1-.6 1.9-.6z"/><path fill-rule="evenodd" clip-rule="evenodd" fill="#679BEF" d="M89.9 239.4c-1.1 1.8-3.4 2.5-5.3 1.4-1.8-1-2.4-3.3-1.5-5.1-.3 4.9 5.9 5.5 7.3 1.7 0 .7-.1 1.4-.5 2z"/><path fill-rule="evenodd" clip-rule="evenodd" fill="#B7E8F3" d="M86.6 234.4c.9 0 1.6.3 1.6.8 0 .4-.7.8-1.6.8s-1.6-.3-1.6-.8c-.1-.5.7-.8 1.6-.8z"/><path fill-rule="evenodd" clip-rule="evenodd" fill="#B7E8F3" d="M88.7 235.9c.3 0 .6.1.6.3 0 .2-.3.3-.6.3s-.6-.1-.6-.3c0-.2.3-.3.6-.3z"/></g><g><g><path fill-rule="evenodd" clip-rule="evenodd" fill="#7EAAF1" d="M136.6 43.4c-2.7 0-4.9-2.2-4.9-4.9s2.2-4.9 4.9-4.9 4.9 2.2 4.9 4.9c-.1 2.7-2.3 4.9-4.9 4.9z"/><path fill="#397DEA" d="M136.6 34.6c2.1 0 3.9 1.7 3.9 3.9s-1.7 3.9-3.9 3.9c-2.1 0-3.9-1.7-3.9-3.9s1.7-3.9 3.9-3.9m0-2c-3.2 0-5.9 2.6-5.9 5.9 0 3.2 2.6 5.9 5.9 5.9 3.2 0 5.9-2.6 5.9-5.9-.1-3.2-2.7-5.9-5.9-5.9z"/></g><path fill-rule="evenodd" clip-rule="evenodd" fill="#95B9F4" d="M136.6 34.6c2.1 0 3.9 1.7 3.9 3.9 0 2.1-1.6 3.8-3.7 3.9 4.4-2.1 1.8-7.8-2.1-7.2.5-.4 1.1-.6 1.9-.6z"/><path fill-rule="evenodd" clip-rule="evenodd" fill="#679BEF" d="M139.9 40.4c-1.1 1.8-3.4 2.5-5.3 1.4-1.8-1-2.4-3.3-1.5-5.1-.4 4.9 5.9 5.5 7.3 1.7 0 .7-.1 1.4-.5 2z"/><ellipse fill-rule="evenodd" clip-rule="evenodd" fill="#B7E8F3" cx="136.6" cy="36.1" rx="1.6" ry=".8"/><ellipse fill-rule="evenodd" clip-rule="evenodd" fill="#B7E8F3" cx="138.7" cy="37.2" rx=".6" ry=".3"/></g><g><g><path fill-rule="evenodd" clip-rule="evenodd" fill="#7EAAF1" d="M136.6 242.4c-2.7 0-4.9-2.2-4.9-4.9s2.2-4.9 4.9-4.9 4.9 2.2 4.9 4.9-2.3 4.9-4.9 4.9z"/><path fill="#397DEA" d="M136.6 233.6c2.1 0 3.9 1.7 3.9 3.9s-1.7 3.9-3.9 3.9c-2.1 0-3.9-1.7-3.9-3.9s1.7-3.9 3.9-3.9m0-2c-3.2 0-5.9 2.6-5.9 5.9s2.6 5.9 5.9 5.9c3.2 0 5.9-2.6 5.9-5.9s-2.7-5.9-5.9-5.9z"/></g><path fill-rule="evenodd" clip-rule="evenodd" fill="#95B9F4" d="M136.6 233.6c2.1 0 3.9 1.7 3.9 3.9 0 2.1-1.6 3.8-3.7 3.9 4.4-2.1 1.8-7.8-2.1-7.2.5-.4 1.1-.6 1.9-.6z"/><path fill-rule="evenodd" clip-rule="evenodd" fill="#679BEF" d="M139.9 239.4c-1.1 1.8-3.4 2.5-5.3 1.4-1.8-1-2.4-3.3-1.5-5.1-.4 4.9 5.9 5.5 7.3 1.7 0 .7-.1 1.4-.5 2z"/><path fill-rule="evenodd" clip-rule="evenodd" fill="#B7E8F3" d="M136.6 234.4c.9 0 1.6.3 1.6.8 0 .4-.7.8-1.6.8-.9 0-1.6-.3-1.6-.8-.1-.5.7-.8 1.6-.8z"/><path fill-rule="evenodd" clip-rule="evenodd" fill="#B7E8F3" d="M138.7 235.9c.3 0 .6.1.6.3 0 .2-.3.3-.6.3s-.6-.1-.6-.3c0-.2.3-.3.6-.3z"/></g><g><g><path fill-rule="evenodd" clip-rule="evenodd" fill="#7EAAF1" d="M18.8 193.3c-2.7 0-4.9-2.2-4.9-4.9s2.2-4.9 4.9-4.9 4.9 2.2 4.9 4.9-2.2 4.9-4.9 4.9z"/><path fill="#397DEA" d="M18.8 184.6c2.1 0 3.9 1.7 3.9 3.9 0 2.1-1.7 3.9-3.9 3.9s-3.9-1.7-3.9-3.9 1.8-3.9 3.9-3.9m0-2c-3.2 0-5.9 2.6-5.9 5.9s2.6 5.9 5.9 5.9 5.9-2.6 5.9-5.9-2.7-5.9-5.9-5.9z"/></g><path fill-rule="evenodd" clip-rule="evenodd" fill="#95B9F4" d="M18.8 184.6c2.1 0 3.9 1.7 3.9 3.9 0 2.1-1.6 3.8-3.7 3.9 4.4-2.1 1.8-7.8-2.1-7.2.5-.4 1.2-.6 1.9-.6z"/><path fill-rule="evenodd" clip-rule="evenodd" fill="#679BEF" d="M22.2 190.4c-1.1 1.8-3.4 2.5-5.3 1.4-1.8-1-2.4-3.3-1.5-5.1-.3 4.9 5.9 5.5 7.3 1.7 0 .7-.2 1.3-.5 2z"/><ellipse fill-rule="evenodd" clip-rule="evenodd" fill="#B7E8F3" cx="18.8" cy="186.1" rx="1.6" ry=".8"/><ellipse fill-rule="evenodd" clip-rule="evenodd" fill="#B7E8F3" cx="20.9" cy="187.1" rx=".6" ry=".3"/></g><g><g><path fill-rule="evenodd" clip-rule="evenodd" fill="#7EAAF1" d="M70.8 193.3c-2.7 0-4.9-2.2-4.9-4.9s2.2-4.9 4.9-4.9 4.9 2.2 4.9 4.9-2.2 4.9-4.9 4.9z"/><path fill="#397DEA" d="M70.8 184.6c2.1 0 3.9 1.7 3.9 3.9 0 2.1-1.7 3.9-3.9 3.9-2.1 0-3.9-1.7-3.9-3.9s1.8-3.9 3.9-3.9m0-2c-3.2 0-5.9 2.6-5.9 5.9s2.6 5.9 5.9 5.9c3.2 0 5.9-2.6 5.9-5.9s-2.7-5.9-5.9-5.9z"/></g><path fill-rule="evenodd" clip-rule="evenodd" fill="#95B9F4" d="M70.8 184.6c2.1 0 3.9 1.7 3.9 3.9 0 2.1-1.6 3.8-3.7 3.9 4.4-2.1 1.8-7.8-2.1-7.2.5-.4 1.2-.6 1.9-.6z"/><path fill-rule="evenodd" clip-rule="evenodd" fill="#679BEF" d="M74.2 190.4c-1.1 1.8-3.4 2.5-5.3 1.4-1.8-1-2.4-3.3-1.5-5.1-.4 4.9 5.9 5.5 7.3 1.7 0 .7-.2 1.3-.5 2z"/><ellipse fill-rule="evenodd" clip-rule="evenodd" fill="#B7E8F3" cx="70.8" cy="186.1" rx="1.6" ry=".8"/><ellipse fill-rule="evenodd" clip-rule="evenodd" fill="#B7E8F3" cx="72.9" cy="187.1" rx=".6" ry=".3"/></g><g><g><path fill-rule="evenodd" clip-rule="evenodd" fill="#7EAAF1" d="M122.8 193.3c-2.7 0-4.9-2.2-4.9-4.9s2.2-4.9 4.9-4.9 4.9 2.2 4.9 4.9-2.2 4.9-4.9 4.9z"/><path fill="#397DEA" d="M122.8 184.6c2.1 0 3.9 1.7 3.9 3.9 0 2.1-1.7 3.9-3.9 3.9-2.1 0-3.9-1.7-3.9-3.9s1.8-3.9 3.9-3.9m0-2c-3.2 0-5.9 2.6-5.9 5.9s2.6 5.9 5.9 5.9 5.9-2.6 5.9-5.9-2.7-5.9-5.9-5.9z"/></g><path fill-rule="evenodd" clip-rule="evenodd" fill="#95B9F4" d="M122.8 184.6c2.1 0 3.9 1.7 3.9 3.9 0 2.1-1.6 3.8-3.7 3.9 4.4-2.1 1.8-7.8-2.1-7.2.5-.4 1.2-.6 1.9-.6z"/><path fill-rule="evenodd" clip-rule="evenodd" fill="#679BEF" d="M126.2 190.4c-1.1 1.8-3.4 2.5-5.3 1.4-1.8-1-2.4-3.3-1.5-5.1-.4 4.9 5.9 5.5 7.3 1.7 0 .7-.2 1.3-.5 2z"/><ellipse fill-rule="evenodd" clip-rule="evenodd" fill="#B7E8F3" cx="122.8" cy="186.1" rx="1.6" ry=".8"/><path fill-rule="evenodd" clip-rule="evenodd" fill="#B7E8F3" d="M124.9 186.8c.3 0 .6.1.6.3s-.3.3-.6.3-.6-.1-.6-.3.3-.3.6-.3z"/></g></svg>

<?xml version="1.0" encoding="utf-8"?>
<!-- Generator: Adobe Illustrator 16.0.0, SVG Export Plug-In . SVG Version: 6.00 Build 0)  -->
<!DOCTYPE svg PUBLIC "-//W3C//DTD SVG 1.1//EN" "http://www.w3.org/Graphics/SVG/1.1/DTD/svg11.dtd">
<svg version="1.1" id="Layer_3" xmlns="http://www.w3.org/2000/svg" xmlns:xlink="http://www.w3.org/1999/xlink" x="0px" y="0px"
	 width="150px" height="250px" viewBox="0 0 150 250" enable-background="new 0 0 150 250" xml:space="preserve">
<g>
	<g>
		<path fill-rule="evenodd" clip-rule="evenodd" fill="#7EAAF1" d="M36.6,39.4c-2.7,0-4.9-2.2-4.9-4.9c0-2.7,2.2-4.9,4.9-4.9
			c2.7,0,4.9,2.2,4.9,4.9C41.4,37.2,39.2,39.4,36.6,39.4z"/>
		<path fill="#397DEA" d="M36.6,30.6c2.1,0,3.9,1.7,3.9,3.9s-1.7,3.9-3.9,3.9c-2.1,0-3.9-1.7-3.9-3.9S34.4,30.6,36.6,30.6
			 M36.6,28.6c-3.2,0-5.9,2.6-5.9,5.9c0,3.2,2.6,5.9,5.9,5.9c3.2,0,5.9-2.6,5.9-5.9C42.4,31.3,39.8,28.6,36.6,28.6L36.6,28.6z"/>
	</g>
	<path fill-rule="evenodd" clip-rule="evenodd" fill="#95B9F4" d="M36.6,30.6c2.1,0,3.9,1.7,3.9,3.9c0,2.1-1.6,3.8-3.7,3.9
		c4.4-2.1,1.8-7.8-2.1-7.2C35.2,30.8,35.8,30.6,36.6,30.6z"/>
	<path fill-rule="evenodd" clip-rule="evenodd" fill="#679BEF" d="M39.9,36.4c-1.1,1.8-3.4,2.5-5.3,1.4c-1.8-1-2.4-3.3-1.5-5.1
		c-0.4,4.9,5.9,5.5,7.3,1.7C40.4,35.1,40.3,35.8,39.9,36.4z"/>
	<ellipse fill-rule="evenodd" clip-rule="evenodd" fill="#B7E8F3" cx="36.6" cy="32.1" rx="1.6" ry="0.8"/>
	<ellipse fill-rule="evenodd" clip-rule="evenodd" fill="#B7E8F3" cx="38.7" cy="33.2" rx="0.6" ry="0.3"/>
</g>
<g>
	<g>
		<path fill-rule="evenodd" clip-rule="evenodd" fill="#7EAAF1" d="M36.6,242.4c-2.7,0-4.9-2.2-4.9-4.9s2.2-4.9,4.9-4.9
			c2.7,0,4.9,2.2,4.9,4.9S39.2,242.4,36.6,242.4z"/>
		<path fill="#397DEA" d="M36.6,233.6c2.1,0,3.9,1.7,3.9,3.9s-1.7,3.9-3.9,3.9c-2.1,0-3.9-1.7-3.9-3.9S34.4,233.6,36.6,233.6
			 M36.6,231.6c-3.2,0-5.9,2.6-5.9,5.9s2.6,5.9,5.9,5.9c3.2,0,5.9-2.6,5.9-5.9S39.8,231.6,36.6,231.6L36.6,231.6z"/>
	</g>
	<path fill-rule="evenodd" clip-rule="evenodd" fill="#95B9F4" d="M36.6,233.6c2.1,0,3.9,1.7,3.9,3.9c0,2.1-1.6,3.8-3.7,3.9
		c4.4-2.1,1.8-7.8-2.1-7.2C35.2,233.8,35.8,233.6,36.6,233.6z"/>
	<path fill-rule="evenodd" clip-rule="evenodd" fill="#679BEF" d="M39.9,239.4c-1.1,1.8-3.4,2.5-5.3,1.4c-1.8-1-2.4-3.3-1.5-5.1
		c-0.4,4.9,5.9,5.5,7.3,1.7C40.4,238.1,40.3,238.8,39.9,239.4z"/>
	<path fill-rule="evenodd" clip-rule="evenodd" fill="#B7E8F3" d="M36.6,234.4c0.9,0,1.6,0.3,1.6,0.8c0,0.4-0.7,0.8-1.6,0.8
		c-0.9,0-1.6-0.3-1.6-0.8C34.9,234.7,35.7,234.4,36.6,234.4z"/>
	<path fill-rule="evenodd" clip-rule="evenodd" fill="#B7E8F3" d="M38.7,235.9c0.3,0,0.6,0.1,0.6,0.3c0,0.2-0.3,0.3-0.6,0.3
		c-0.3,0-0.6-0.1-0.6-0.3C38.1,236,38.4,235.9,38.7,235.9z"/>
</g>
<g>
	<g>
		<path fill-rule="evenodd" clip-rule="evenodd" fill="#7EAAF1" d="M86.6,41.4c-2.7,0-4.9-2.2-4.9-4.9c0-2.7,2.2-4.9,4.9-4.9
			s4.9,2.2,4.9,4.9C91.4,39.2,89.2,41.4,86.6,41.4z"/>
		<path fill="#397DEA" d="M86.6,32.6c2.1,0,3.9,1.7,3.9,3.9s-1.7,3.9-3.9,3.9s-3.9-1.7-3.9-3.9S84.4,32.6,86.6,32.6 M86.6,30.6
			c-3.2,0-5.9,2.6-5.9,5.9c0,3.2,2.6,5.9,5.9,5.9s5.9-2.6,5.9-5.9C92.4,33.3,89.8,30.6,86.6,30.6L86.6,30.6z"/>
	</g>
	<path fill-rule="evenodd" clip-rule="evenodd" fill="#95B9F4" d="M86.6,32.6c2.1,0,3.9,1.7,3.9,3.9c0,2.1-1.6,3.8-3.7,3.9
		c4.4-2.1,1.8-7.8-2.1-7.2C85.2,32.8,85.8,32.6,86.6,32.6z"/>
	<path fill-rule="evenodd" clip-rule="evenodd" fill="#679BEF" d="M89.9,38.4c-1.1,1.8-3.4,2.5-5.3,1.4c-1.8-1-2.4-3.3-1.5-5.1
		c-0.3,4.9,5.9,5.5,7.3,1.7C90.4,37.1,90.3,37.8,89.9,38.4z"/>
	<ellipse fill-rule="evenodd" clip-rule="evenodd" fill="#B7E8F3" cx="86.6" cy="34.1" rx="1.6" ry="0.8"/>
	<ellipse fill-rule="evenodd" clip-rule="evenodd" fill="#B7E8F3" cx="88.7" cy="35.2" rx="0.6" ry="0.3"/>
</g>
<g>
	<g>
		<path fill-rule="evenodd" clip-rule="evenodd" fill="#7EAAF1" d="M86.6,242.4c-2.7,0-4.9-2.2-4.9-4.9s2.2-4.9,4.9-4.9
			s4.9,2.2,4.9,4.9S89.2,242.4,86.6,242.4z"/>
		<path fill="#397DEA" d="M86.6,233.6c2.1,0,3.9,1.7,3.9,3.9s-1.7,3.9-3.9,3.9s-3.9-1.7-3.9-3.9S84.4,233.6,86.6,233.6 M86.6,231.6
			c-3.2,0-5.9,2.6-5.9,5.9s2.6,5.9,5.9,5.9c3.2,0,5.9-2.6,5.9-5.9S89.8,231.6,86.6,231.6L86.6,231.6z"/>
	</g>
	<path fill-rule="evenodd" clip-rule="evenodd" fill="#95B9F4" d="M86.6,233.6c2.1,0,3.9,1.7,3.9,3.9c0,2.1-1.6,3.8-3.7,3.9
		c4.4-2.1,1.8-7.8-2.1-7.2C85.2,233.8,85.8,233.6,86.6,233.6z"/>
	<path fill-rule="evenodd" clip-rule="evenodd" fill="#679BEF" d="M89.9,239.4c-1.1,1.8-3.4,2.5-5.3,1.4c-1.8-1-2.4-3.3-1.5-5.1
		c-0.3,4.9,5.9,5.5,7.3,1.7C90.4,238.1,90.3,238.8,89.9,239.4z"/>
	<path fill-rule="evenodd" clip-rule="evenodd" fill="#B7E8F3" d="M86.6,234.4c0.9,0,1.6,0.3,1.6,0.8c0,0.4-0.7,0.8-1.6,0.8
		s-1.6-0.3-1.6-0.8C84.9,234.7,85.7,234.4,86.6,234.4z"/>
	<path fill-rule="evenodd" clip-rule="evenodd" fill="#B7E8F3" d="M88.7,235.9c0.3,0,0.6,0.1,0.6,0.3c0,0.2-0.3,0.3-0.6,0.3
		c-0.3,0-0.6-0.1-0.6-0.3C88.1,236,88.4,235.9,88.7,235.9z"/>
</g>
<g>
	<g>
		<path fill-rule="evenodd" clip-rule="evenodd" fill="#7EAAF1" d="M136.6,43.4c-2.7,0-4.9-2.2-4.9-4.9c0-2.7,2.2-4.9,4.9-4.9
			c2.7,0,4.9,2.2,4.9,4.9C141.4,41.2,139.2,43.4,136.6,43.4z"/>
		<path fill="#397DEA" d="M136.6,34.6c2.1,0,3.9,1.7,3.9,3.9s-1.7,3.9-3.9,3.9c-2.1,0-3.9-1.7-3.9-3.9S134.4,34.6,136.6,34.6
			 M136.6,32.6c-3.2,0-5.9,2.6-5.9,5.9c0,3.2,2.6,5.9,5.9,5.9c3.2,0,5.9-2.6,5.9-5.9C142.4,35.3,139.8,32.6,136.6,32.6L136.6,32.6z"
			/>
	</g>
	<path fill-rule="evenodd" clip-rule="evenodd" fill="#95B9F4" d="M136.6,34.6c2.1,0,3.9,1.7,3.9,3.9c0,2.1-1.6,3.8-3.7,3.9
		c4.4-2.1,1.8-7.8-2.1-7.2C135.2,34.8,135.8,34.6,136.6,34.6z"/>
	<path fill-rule="evenodd" clip-rule="evenodd" fill="#679BEF" d="M139.9,40.4c-1.1,1.8-3.4,2.5-5.3,1.4c-1.8-1-2.4-3.3-1.5-5.1
		c-0.4,4.9,5.9,5.5,7.3,1.7C140.4,39.1,140.3,39.8,139.9,40.4z"/>
	<ellipse fill-rule="evenodd" clip-rule="evenodd" fill="#B7E8F3" cx="136.6" cy="36.1" rx="1.6" ry="0.8"/>
	<ellipse fill-rule="evenodd" clip-rule="evenodd" fill="#B7E8F3" cx="138.7" cy="37.2" rx="0.6" ry="0.3"/>
</g>
<g>
	<g>
		<path fill-rule="evenodd" clip-rule="evenodd" fill="#7EAAF1" d="M136.6,242.4c-2.7,0-4.9-2.2-4.9-4.9s2.2-4.9,4.9-4.9
			c2.7,0,4.9,2.2,4.9,4.9S139.2,242.4,136.6,242.4z"/>
		<path fill="#397DEA" d="M136.6,233.6c2.1,0,3.9,1.7,3.9,3.9s-1.7,3.9-3.9,3.9c-2.1,0-3.9-1.7-3.9-3.9S134.4,233.6,136.6,233.6
			 M136.6,231.6c-3.2,0-5.9,2.6-5.9,5.9s2.6,5.9,5.9,5.9c3.2,0,5.9-2.6,5.9-5.9S139.8,231.6,136.6,231.6L136.6,231.6z"/>
	</g>
	<path fill-rule="evenodd" clip-rule="evenodd" fill="#95B9F4" d="M136.6,233.6c2.1,0,3.9,1.7,3.9,3.9c0,2.1-1.6,3.8-3.7,3.9
		c4.4-2.1,1.8-7.8-2.1-7.2C135.2,233.8,135.8,233.6,136.6,233.6z"/>
	<path fill-rule="evenodd" clip-rule="evenodd" fill="#679BEF" d="M139.9,239.4c-1.1,1.8-3.4,2.5-5.3,1.4c-1.8-1-2.4-3.3-1.5-5.1
		c-0.4,4.9,5.9,5.5,7.3,1.7C140.4,238.1,140.3,238.8,139.9,239.4z"/>
	<path fill-rule="evenodd" clip-rule="evenodd" fill="#B7E8F3" d="M136.6,234.4c0.9,0,1.6,0.3,1.6,0.8c0,0.4-0.7,0.8-1.6,0.8
		c-0.9,0-1.6-0.3-1.6-0.8C134.9,234.7,135.7,234.4,136.6,234.4z"/>
	<path fill-rule="evenodd" clip-rule="evenodd" fill="#B7E8F3" d="M138.7,235.9c0.3,0,0.6,0.1,0.6,0.3c0,0.2-0.3,0.3-0.6,0.3
		s-0.6-0.1-0.6-0.3C138.1,236,138.4,235.9,138.7,235.9z"/>
</g>
<g>
	<g>
		<path fill-rule="evenodd" clip-rule="evenodd" fill="#7EAAF1" d="M18.8,193.3c-2.7,0-4.9-2.2-4.9-4.9s2.2-4.9,4.9-4.9
			s4.9,2.2,4.9,4.9S21.5,193.3,18.8,193.3z"/>
		<path fill="#397DEA" d="M18.8,184.6c2.1,0,3.9,1.7,3.9,3.9c0,2.1-1.7,3.9-3.9,3.9s-3.9-1.7-3.9-3.9
			C14.9,186.3,16.7,184.6,18.8,184.6 M18.8,182.6c-3.2,0-5.9,2.6-5.9,5.9s2.6,5.9,5.9,5.9s5.9-2.6,5.9-5.9S22,182.6,18.8,182.6
			L18.8,182.6z"/>
	</g>
	<path fill-rule="evenodd" clip-rule="evenodd" fill="#95B9F4" d="M18.8,184.6c2.1,0,3.9,1.7,3.9,3.9c0,2.1-1.6,3.8-3.7,3.9
		c4.4-2.1,1.8-7.8-2.1-7.2C17.4,184.8,18.1,184.6,18.8,184.6z"/>
	<path fill-rule="evenodd" clip-rule="evenodd" fill="#679BEF" d="M22.2,190.4c-1.1,1.8-3.4,2.5-5.3,1.4c-1.8-1-2.4-3.3-1.5-5.1
		c-0.3,4.9,5.9,5.5,7.3,1.7C22.7,189.1,22.5,189.7,22.2,190.4z"/>
	<ellipse fill-rule="evenodd" clip-rule="evenodd" fill="#B7E8F3" cx="18.8" cy="186.1" rx="1.6" ry="0.8"/>
	<ellipse fill-rule="evenodd" clip-rule="evenodd" fill="#B7E8F3" cx="20.9" cy="187.1" rx="0.6" ry="0.3"/>
</g>
<g>
	<g>
		<path fill-rule="evenodd" clip-rule="evenodd" fill="#7EAAF1" d="M70.8,193.3c-2.7,0-4.9-2.2-4.9-4.9s2.2-4.9,4.9-4.9
			s4.9,2.2,4.9,4.9S73.5,193.3,70.8,193.3z"/>
		<path fill="#397DEA" d="M70.8,184.6c2.1,0,3.9,1.7,3.9,3.9c0,2.1-1.7,3.9-3.9,3.9c-2.1,0-3.9-1.7-3.9-3.9
			C66.9,186.3,68.7,184.6,70.8,184.6 M70.8,182.6c-3.2,0-5.9,2.6-5.9,5.9s2.6,5.9,5.9,5.9c3.2,0,5.9-2.6,5.9-5.9
			S74,182.6,70.8,182.6L70.8,182.6z"/>
	</g>
	<path fill-rule="evenodd" clip-rule="evenodd" fill="#95B9F4" d="M70.8,184.6c2.1,0,3.9,1.7,3.9,3.9c0,2.1-1.6,3.8-3.7,3.9
		c4.4-2.1,1.8-7.8-2.1-7.2C69.4,184.8,70.1,184.6,70.8,184.6z"/>
	<path fill-rule="evenodd" clip-rule="evenodd" fill="#679BEF" d="M74.2,190.4c-1.1,1.8-3.4,2.5-5.3,1.4c-1.8-1-2.4-3.3-1.5-5.1
		c-0.4,4.9,5.9,5.5,7.3,1.7C74.7,189.1,74.5,189.7,74.2,190.4z"/>
	<ellipse fill-rule="evenodd" clip-rule="evenodd" fill="#B7E8F3" cx="70.8" cy="186.1" rx="1.6" ry="0.8"/>
	<ellipse fill-rule="evenodd" clip-rule="evenodd" fill="#B7E8F3" cx="72.9" cy="187.1" rx="0.6" ry="0.3"/>
</g>
<g>
	<g>
		<path fill-rule="evenodd" clip-rule="evenodd" fill="#7EAAF1" d="M122.8,193.3c-2.7,0-4.9-2.2-4.9-4.9s2.2-4.9,4.9-4.9
			s4.9,2.2,4.9,4.9S125.5,193.3,122.8,193.3z"/>
		<path fill="#397DEA" d="M122.8,184.6c2.1,0,3.9,1.7,3.9,3.9c0,2.1-1.7,3.9-3.9,3.9c-2.1,0-3.9-1.7-3.9-3.9
			C118.9,186.3,120.7,184.6,122.8,184.6 M122.8,182.6c-3.2,0-5.9,2.6-5.9,5.9s2.6,5.9,5.9,5.9s5.9-2.6,5.9-5.9
			S126,182.6,122.8,182.6L122.8,182.6z"/>
	</g>
	<path fill-rule="evenodd" clip-rule="evenodd" fill="#95B9F4" d="M122.8,184.6c2.1,0,3.9,1.7,3.9,3.9c0,2.1-1.6,3.8-3.7,3.9
		c4.4-2.1,1.8-7.8-2.1-7.2C121.4,184.8,122.1,184.6,122.8,184.6z"/>
	<path fill-rule="evenodd" clip-rule="evenodd" fill="#679BEF" d="M126.2,190.4c-1.1,1.8-3.4,2.5-5.3,1.4c-1.8-1-2.4-3.3-1.5-5.1
		c-0.4,4.9,5.9,5.5,7.3,1.7C126.7,189.1,126.5,189.7,126.2,190.4z"/>
	<ellipse fill-rule="evenodd" clip-rule="evenodd" fill="#B7E8F3" cx="122.8" cy="186.1" rx="1.6" ry="0.8"/>
	<path fill-rule="evenodd" clip-rule="evenodd" fill="#B7E8F3" d="M124.9,186.8c0.3,0,0.6,0.1,0.6,0.3s-0.3,0.3-0.6,0.3
		c-0.3,0-0.6-0.1-0.6-0.3S124.6,186.8,124.9,186.8z"/>
</g>
</svg>
